X:1
T:Title
%%score { 1 | ( 2 3 ) }
L:1/8
Q:1/4=100
M:4/4
K:D
V:1 treble nm="Grand Piano"
V:2 bass 
V:3 bass 
V:1
 [FA]2 [DF]>[EG] [FA]2 [Fd]>[Fd] | [FA]2 D>E F4 | G2 A>B A2 [Fd]>[Fd] | c2 B>c [CA]2 z2 | %4
w: Pemberton~Pierce * * * * *||||
 [EG]2 [DF]>[C=F] ^F2 D>D | E2 [DF]>[EG] [DF]4 | [FA]2 [Fd]>[GB] [DFA][DF][K:bass][F,D][B,DE] | %7
w: |||
 [A,DF]EDC D4 | [CE]2 [CA]>[CA] [CA]2 [D^G][E=G] | [DF]2 [FA]>[FA] [FA]4 | %10
w: |||
 [GB]2 [GB]>[Ac] [Bd]2 [Ac][GB] | [FA]2 [FA]>[EG] [DF]4 | [CE]2 [CA]>[CA] [CA]2 [D^G][E=G] | %13
w: |||
[M:5/4] [DF]2 [FA]>[FA] B6 |[M:4/4] B2 B>B [DFA][DF][K:bass][F,D][B,DE] | [A,DF]EDC D4 |] %16
w: |||
V:2
 [D,A,]2 [D,A,]>[D,A,] [D,A,]2 [D,A,]>[D,A,] | [D,A,]2 [F,A,]>[E,A,C] [D,A,D]4 | %2
 [B,D]2 [A,DF]>[G,DG][K:bass] [F,D]2 [D,A,]>[D,A,] | [E,A,E]2 [E,^G,D]>[E,G,E] [A,,A,]2 z2 | %4
 [A,,A,]2 [A,,A,]>[A,,A,] [D,A,D]2 [F,A,]>[F,A,] | [A,C]2 [A,,A,]>[A,,A,] [D,A,]4 | %6
 [D,D]2 [D,D]>[D,D] z A,D,G,, | z [G,A,][A,,F,A,][A,,E,A,] [D,F,A,]4 | %8
 [A,,A,]2 [A,,E,]>[A,,E,] [A,,E,]2 [B,,E,][C,A,] | [D,A,]2 [D,D]>[D,D] [D,D]4 | %10
 [G,D]2 [G,D]>[G,D] [G,D]2 [G,D][G,D] | [D,D]2 [D,D]>[D,A,] [D,A,]4 | %12
 [A,,A,]2 [A,,E,]>[A,,E,] [A,,E,]2 [B,,E,][C,A,] |[M:5/4] [D,A,]2 [D,D]>[D,D][K:treble] [G,DG]6 | %14
[M:4/4] [G,DG]2 [G,DG]>[G,DG][K:bass] z A,D,G,, | z A,[A,,F,A,][A,,E,A,] [D,F,A,]4 |] %16
V:3
 x8 | x8 | x4[K:bass] x4 | x8 | x8 | x8 | z4 D,2 z2 | A,,2 z2 z4 | x8 | x8 | x8 | x8 | x8 | %13
[M:5/4] x4[K:treble] x6 |[M:4/4] z4[K:bass] D,2 z2 | A,,2 z2 z4 |] %16

